X:1
T:Ice Cream
C:Johnson, Moll, King - 1927
Z:Copyright © www.realbook.site
L:1/8
M:4/4
I:linebreak $
K:Bb
V:1 treble nm=" " snm=" "
V:1
|:"Bb" F3 D- D4 | d3 B- B3 F | F4 D3 F | d3 B- B4 |$"F7" F8 | _d2 d2 d c2 B- |"Bb" B8 |1 z8"F7" :|2 %8
"Bb7" z2 B2 c2 d2 ||$"Eb" e4 G4- | G4 e2 e2 |"Bb" d4 F4- | F4 G2 F2 |$"C7" =E4 c4 | c4 d4 | %15
"F7" c2 B2 A2 G2 | F2 E2 D2 C2 ||$"Bb" F3 D- D4 | d3 B- B3 F | F4 D3 F | d3 B- B4 |$"F7" F8 | %22
 _d2 d2 d c2 B- |"Bb" B8- | B8 |] %25

